lib/healthicons/icons/solid/people/forum.svg

<svg fill="none" height="48" viewBox="0 0 48 48" width="48" xmlns="http://www.w3.org/2000/svg"><g fill="#333"><path d="m4 20.0694c0-5.5612 4.50824-10.0694 10.0694-10.0694h7.8612c5.5612 0 10.0694 4.5082 10.0694 10.0694s-4.5082 10.0695-10.0694 10.0695h-5.9306v4.8611s-12-2.4306-12-14.9306z"/><path clip-rule="evenodd" d="m24.4774 31.867c1.4476 1.3899 3.4133 2.2441 5.5785 2.2441h2.9444v3.8889s11-1.9444 11-11.9444c0-4.449-3.6066-8.0556-8.0555-8.0556h-2.2096c.1727.6562.2647 1.3451.2647 2.0556 0 5.7947-4.0791 10.6367-9.5225 11.8114z" fill-rule="evenodd"/></g></svg>

<svg width="48" height="48" viewBox="0 0 48 48" fill="none" xmlns="http://www.w3.org/2000/svg">
<path d="M4 20.0694C4 14.5082 8.50824 10 14.0694 10H21.9306C27.4918 10 32 14.5082 32 20.0694C32 25.6306 27.4918 30.1389 21.9306 30.1389H16V35C16 35 4 32.5694 4 20.0694Z" fill="#333333"/>
<path d="M24.4774 31.867C25.925 33.2569 27.8907 34.1111 30.0559 34.1111H33.0003V38C33.0003 38 44.0003 36.0556 44.0003 26.0556C44.0003 21.6066 40.3937 18 35.9448 18H33.7352C33.9079 18.6562 33.9999 19.3451 33.9999 20.0556C33.9999 25.8503 29.9208 30.6923 24.4774 31.867Z" fill="#333333"/>
</svg>
